public/images/icons/p2p-v2.svg

<svg width="53" height="54" viewBox="0 0 53 54" fill="none" xmlns="http://www.w3.org/2000/svg">
<path d="M22 43H12.415L8.00003 38.585V35C8.00003 34.7347 7.89467 34.4804 7.70713 34.2929C7.5196 34.1053 7.26524 34 7.00003 34C6.73481 34 6.48046 34.1053 6.29292 34.2929C6.10538 34.4804 6.00003 34.7347 6.00003 35V39C6.00114 39.2648 6.10723 39.5183 6.29503 39.705L11.295 44.705C11.4817 44.8928 11.7352 44.9988 12 45H22C22.2652 45 22.5196 44.8946 22.7071 44.7071C22.8947 44.5195 23 44.2652 23 44C23 43.7347 22.8947 43.4804 22.7071 43.2929C22.5196 43.1053 22.2652 43 22 43ZM24.5 11H35.585L40 15.415V19C40 19.2652 40.1054 19.5195 40.2929 19.7071C40.4805 19.8946 40.7348 20 41 20C41.2652 20 41.5196 19.8946 41.7071 19.7071C41.8947 19.5195 42 19.2652 42 19V15C41.9989 14.7352 41.8928 14.4816 41.705 14.295L36.705 9.29496C36.5184 9.10717 36.2648 9.00108 36 8.99996H24.5C24.2348 8.99996 23.9805 9.10532 23.7929 9.29286C23.6054 9.48039 23.5 9.73475 23.5 9.99996C23.5 10.2652 23.6054 10.5195 23.7929 10.7071C23.9805 10.8946 24.2348 11 24.5 11ZM26.525 29C26.6747 28.9136 26.7995 28.7899 26.8871 28.6409C26.9747 28.4919 27.0222 28.3228 27.025 28.15C27.025 21.99 25.455 21.15 20.91 19.65C20.32 19.46 19.665 19.24 18.955 18.99C18.6893 18.4031 18.5907 17.7543 18.67 17.115C19.1364 16.5734 19.5036 15.9539 19.755 15.285C20.031 14.0591 20.1701 12.8065 20.17 11.55C20.21 10.75 20.255 9.83996 20.33 8.91496C20.3534 8.60496 20.3784 8.31996 20.405 8.05996C20.615 5.49996 20.7 4.49996 18.68 2.49996C16.66 0.499962 11.04 0.499962 8.75503 2.44996C6.75503 4.16496 6.84003 5.44996 7.00003 7.74496C7.00003 8.08996 7.05003 8.46496 7.07003 8.87996C7.10003 9.41996 7.12003 9.96496 7.14003 10.495C7.21003 12.355 7.27503 14.105 7.64003 15.285C7.88683 15.9633 8.25632 16.5904 8.73003 17.135C8.81534 17.7579 8.77797 18.3914 8.62003 19C7.90003 19.255 7.23003 19.475 6.62003 19.67C2.17503 21.115 0.370026 21.95 0.370026 28.125C0.3664 28.3001 0.40883 28.4731 0.493068 28.6266C0.577306 28.7802 0.700399 28.9089 0.850026 29C1.05503 29.125 5.87503 32.05 13.705 32.05C21.535 32.05 26.325 29.115 26.525 29ZM9.56003 14.68C9.26503 13.755 9.20503 12.135 9.14003 10.415C9.14003 10.035 9.10503 9.64996 9.09003 9.26496C9.69255 8.97707 10.2447 8.59381 10.725 8.12996C13.1248 9.06238 15.6934 9.48139 18.265 9.35996C18.215 10.1 18.175 10.805 18.145 11.445C18.1414 12.5313 18.0326 13.6147 17.82 14.68C17.4818 15.4069 17.0006 16.0582 16.405 16.595C16.24 16.745 16.085 16.895 15.935 17.04C15.075 17.865 14.615 18.26 13.69 18.26C12.765 18.26 12.305 17.865 11.44 17.04C11.29 16.895 11.135 16.745 10.97 16.595C10.369 16.0643 9.88831 15.4114 9.56003 14.68V14.68ZM10.06 3.96496C10.8 3.32496 12.335 2.99996 13.82 2.99996C15.305 2.99996 16.66 3.29996 17.265 3.90496C18.515 5.15496 18.6 5.42996 18.435 7.32996C14.725 7.72496 10.935 6.05496 10.89 6.03496C10.692 5.94545 10.4702 5.92289 10.2582 5.97071C10.0461 6.01852 9.85548 6.13411 9.71503 6.29996C9.48554 6.55792 9.23095 6.79241 8.95503 6.99996C8.85503 5.33996 8.94003 4.91996 10.06 3.96496V3.96496ZM7.25003 21.585C7.98503 21.345 8.82003 21.085 9.75003 20.735C9.99454 20.6473 10.1954 20.468 10.31 20.235C10.4757 19.8574 10.5949 19.4612 10.665 19.055C11.4751 19.8408 12.5614 20.2772 13.69 20.27C14.2702 20.2702 14.8446 20.1554 15.3802 19.9323C15.9157 19.7091 16.4017 19.3821 16.81 18.97C16.9361 19.4658 17.1403 19.9384 17.415 20.37C17.5352 20.5472 17.7112 20.6792 17.915 20.745C18.79 21.065 19.58 21.325 20.275 21.555C24.045 22.8 24.95 23.095 25.015 27.555C21.4934 29.2435 17.6303 30.0989 13.725 30.055C9.8098 30.1018 5.93638 29.2463 2.40503 27.555C2.46003 23.145 3.50003 22.815 7.25003 21.585ZM45.885 40.645C45.295 40.455 44.64 40.235 43.93 39.985C43.6643 39.3981 43.5657 38.7493 43.645 38.11C44.1114 37.5684 44.4786 36.9489 44.73 36.28C45.006 35.0541 45.1452 33.8015 45.145 32.545C45.185 31.745 45.23 30.835 45.305 29.91C45.3317 29.6 45.3567 29.315 45.38 29.055C45.615 26.48 45.7 25.52 43.68 23.495C41.66 21.47 36.04 21.495 33.755 23.445C31.755 25.16 31.84 26.445 32 28.74C32 29.085 32.05 29.46 32.07 29.875C32.1 30.415 32.12 30.96 32.14 31.49C32.21 33.35 32.275 35.1 32.64 36.28C32.8868 36.9583 33.2563 37.5854 33.73 38.13C33.816 38.7545 33.7786 39.3898 33.62 40C32.9 40.255 32.23 40.5 31.62 40.67C27.175 42.115 25.37 42.95 25.37 49.125C25.3697 49.2949 25.4127 49.4621 25.4949 49.6109C25.5771 49.7596 25.6959 49.8849 25.84 49.975C26.045 50.1 30.84 53.025 38.695 53.025C46.55 53.025 51.315 50.1 51.515 49.975C51.6647 49.8886 51.7895 49.7649 51.8771 49.6159C51.9647 49.4669 52.0122 49.2978 52.015 49.125C52 43 50.43 42.145 45.885 40.645ZM34.56 35.68C34.265 34.755 34.205 33.135 34.14 31.415C34.14 31.035 34.105 30.65 34.09 30.265C34.6925 29.9771 35.2446 29.5938 35.725 29.13C38.1254 30.0601 40.6935 30.479 43.265 30.36C43.215 31.1 43.175 31.805 43.145 32.445C43.1414 33.5313 43.0326 34.6147 42.82 35.68C42.4818 36.4069 42.0006 37.0582 41.405 37.595C41.24 37.745 41.085 37.895 40.935 38.04C40.075 38.865 39.615 39.26 38.69 39.26C37.765 39.26 37.305 38.865 36.44 38.04C36.29 37.895 36.135 37.745 35.97 37.595C35.369 37.0643 34.8883 36.4114 34.56 35.68V35.68ZM35.06 24.965C35.8 24.325 37.335 24 38.82 24C40.305 24 41.66 24.3 42.265 24.905C43.515 26.155 43.6 26.405 43.435 28.33C39.725 28.725 35.935 27.05 35.89 27.035C35.692 26.9454 35.4702 26.9229 35.2582 26.9707C35.0461 27.0185 34.8555 27.1341 34.715 27.3C34.4855 27.5579 34.231 27.7924 33.955 28C33.855 26.34 33.94 25.92 35.06 24.965ZM38.705 51.04C34.7898 51.0868 30.9164 50.2313 27.385 48.54C27.46 44.135 28.475 43.805 32.25 42.575C32.985 42.335 33.82 42.075 34.75 41.725C34.9945 41.6373 35.1954 41.458 35.31 41.225C35.4757 40.8474 35.5949 40.4512 35.665 40.045C36.4689 40.8248 37.5451 41.2606 38.665 41.26C39.2452 41.2602 39.8196 41.1454 40.3552 40.9223C40.8907 40.6991 41.3767 40.3721 41.785 39.96C41.9111 40.4558 42.1153 40.9284 42.39 41.36C42.5102 41.5372 42.6862 41.6692 42.89 41.735C43.765 42.055 44.555 42.315 45.25 42.545C49.02 43.79 49.925 44.085 49.99 48.545C46.4695 50.2311 42.6083 51.0847 38.705 51.04V51.04Z" fill="url(#paint0_linear_25_626)"/>
<defs>
<linearGradient id="paint0_linear_25_626" x1="0.369814" y1="27.0093" x2="41.8195" y2="6.45201" gradientUnits="userSpaceOnUse">
<stop stop-color="#FFE7E0"/>
<stop offset="0.34375" stop-color="#F8DBF4"/>
<stop offset="0.6875" stop-color="#C4DDFF"/>
<stop offset="1" stop-color="#CAE9FF"/>
</linearGradient>
</defs>
</svg>

<svg fill="none" height="54" viewBox="0 0 53 54" width="53" xmlns="http://www.w3.org/2000/svg" xmlns:xlink="http://www.w3.org/1999/xlink"><linearGradient id="a" gradientUnits="userSpaceOnUse" x1=".369814" x2="41.8195" y1="27.0093" y2="6.45201"><stop offset="0" stop-color="#ffe7e0"/><stop offset=".34375" stop-color="#f8dbf4"/><stop offset=".6875" stop-color="#c4ddff"/><stop offset="1" stop-color="#cae9ff"/></linearGradient><path d="m22 43h-9.585l-4.41497-4.415v-3.585c0-.2653-.10536-.5196-.2929-.7071-.18753-.1876-.44189-.2929-.7071-.2929-.26522 0-.51957.1053-.70711.2929-.18754.1875-.29289.4418-.29289.7071v4c.00111.2648.1072.5183.295.705l4.99997 5c.1867.1878.4402.2938.705.295h10c.2652 0 .5196-.1054.7071-.2929.1876-.1876.2929-.4419.2929-.7071 0-.2653-.1053-.5196-.2929-.7071-.1875-.1876-.4419-.2929-.7071-.2929zm2.5-32h11.085l4.415 4.415v3.585c0 .2652.1054.5195.2929.7071.1876.1875.4419.2929.7071.2929s.5196-.1054.7071-.2929c.1876-.1876.2929-.4419.2929-.7071v-4c-.0011-.2648-.1072-.5184-.295-.705l-5-5.00004c-.1866-.18779-.4402-.29388-.705-.295h-11.5c-.2652 0-.5195.10536-.7071.2929-.1875.18753-.2929.44189-.2929.7071 0 .26524.1054.51954.2929.70714.1876.1875.4419.2929.7071.2929zm2.025 18c.1497-.0864.2745-.2101.3621-.3591s.1351-.3181.1379-.4909c0-6.16-1.57-7-6.115-8.5-.59-.19-1.245-.41-1.955-.66-.2657-.5869-.3643-1.2357-.285-1.875.4664-.5416.8336-1.1611 1.085-1.83.276-1.2259.4151-2.4785.415-3.735.04-.8.085-1.71004.16-2.63504.0234-.31.0484-.595.075-.855.21-2.56.295-3.56-1.725-5.56-2.02-1.999998-7.64-1.999998-9.92497-.05-2 1.715-1.915 3-1.755 5.295 0 .345.05.72.07 1.135.03.54.05 1.085.07 1.61504.07 1.86.135 3.61.5 4.79.2468.6783.61629 1.3054 1.09 1.85.08531.6229.04794 1.2564-.11 1.865-.72.255-1.39.475-2 .67-4.445 1.445-6.250004 2.28-6.250004 8.455-.003626.1751.038804.3481.123042.5016.084238.1536.207331.2823.356958.3734.205004.125 5.025004 3.05 12.854974 3.05 7.83 0 12.62-2.935 12.82-3.05zm-16.96497-14.32c-.295-.925-.355-2.545-.42-4.265 0-.38-.035-.76504-.05-1.15004.60252-.28789 1.15467-.67115 1.63497-1.135 2.3998.93242 4.9684 1.35143 7.54 1.23-.05.74004-.09 1.44504-.12 2.08504-.0036 1.0863-.1124 2.1697-.325 3.235-.3382.7269-.8194 1.3782-1.415 1.915-.165.15-.32.3-.47.445-.86.825-1.32 1.22-2.245 1.22s-1.385-.395-2.25-1.22c-.15-.145-.305-.295-.47-.445-.601-.5307-1.08169-1.1836-1.40997-1.915zm.49997-10.71504c.74-.64 2.275-.965 3.76-.965s2.84.3 3.445.905c1.25 1.25 1.335 1.525 1.17 3.425-3.71.395-7.5-1.275-7.545-1.295-.198-.08951-.4198-.11207-.6318-.06425-.2121.04781-.40272.1634-.54317.32925-.22949.25796-.48408.49245-.76.7-.1-1.66-.015-2.08 1.10497-3.035zm-2.80997 17.62004c.735-.24 1.57-.5 2.5-.85.24451-.0877.44537-.267.55997-.5.1657-.3776.2849-.7738.355-1.18.8101.7858 1.8964 1.2222 3.025 1.215.5802.0002 1.1546-.1146 1.6902-.3377.5355-.2232 1.0215-.5502 1.4298-.9623.1261.4958.3303.9684.605 1.4.1202.1772.2962.3092.5.375.875.32 1.665.58 2.36.81 3.77 1.245 4.675 1.54 4.74 6-3.5216 1.6885-7.3847 2.5439-11.29 2.5-3.9152.0468-7.78862-.8087-11.31997-2.5.055-4.41 1.095-4.74 4.845-5.97zm38.63497 19.06c-.59-.19-1.245-.41-1.955-.66-.2657-.5869-.3643-1.2357-.285-1.875.4664-.5416.8336-1.1611 1.085-1.83.276-1.2259.4152-2.4785.415-3.735.04-.8.085-1.71.16-2.635.0267-.31.0517-.595.075-.855.235-2.575.32-3.535-1.7-5.56s-7.64-2-9.925-.05c-2 1.715-1.915 3-1.755 5.295 0 .345.05.72.07 1.135.03.54.05 1.085.07 1.615.07 1.86.135 3.61.5 4.79.2468.6783.6163 1.3054 1.09 1.85.086.6245.0486 1.2598-.11 1.87-.72.255-1.39.5-2 .67-4.445 1.445-6.25 2.28-6.25 8.455-.0003.1699.0427.3371.1249.4859.0822.1487.201.274.3451.3641.205.125 5 3.05 12.855 3.05s12.62-2.925 12.82-3.05c.1497-.0864.2745-.2101.3621-.3591s.1351-.3181.1379-.4909c-.015-6.125-1.585-6.98-6.13-8.48zm-11.325-4.965c-.295-.925-.355-2.545-.42-4.265 0-.38-.035-.765-.05-1.15.6025-.2879 1.1546-.6712 1.635-1.135 2.4004.9301 4.9685 1.349 7.54 1.23-.05.74-.09 1.445-.12 2.085-.0036 1.0863-.1124 2.1697-.325 3.235-.3382.7269-.8194 1.3782-1.415 1.915-.165.15-.32.3-.47.445-.86.825-1.32 1.22-2.245 1.22s-1.385-.395-2.25-1.22c-.15-.145-.305-.295-.47-.445-.601-.5307-1.0817-1.1836-1.41-1.915zm.5-10.715c.74-.64 2.275-.965 3.76-.965s2.84.3 3.445.905c1.25 1.25 1.335 1.5 1.17 3.425-3.71.395-7.5-1.28-7.545-1.295-.198-.0896-.4198-.1121-.6318-.0643-.2121.0478-.4027.1634-.5432.3293-.2295.2579-.484.4924-.76.7-.1-1.66-.015-2.08 1.105-3.035zm3.645 26.075c-3.9152.0468-7.7886-.8087-11.32-2.5.075-4.405 1.09-4.735 4.865-5.965.735-.24 1.57-.5 2.5-.85.2445-.0877.4454-.267.56-.5.1657-.3776.2849-.7738.355-1.18.8039.7798 1.8801 1.2156 3 1.215.5802.0002 1.1546-.1146 1.6902-.3377.5355-.2232 1.0215-.5502 1.4298-.9623.1261.4958.3303.9684.605 1.4.1202.1772.2962.3092.5.375.875.32 1.665.58 2.36.81 3.77 1.245 4.675 1.54 4.74 6-3.5205 1.6861-7.3817 2.5397-11.285 2.495z" fill="url(#a)"/></svg>
